app/img/who-suits/5.svg

<svg width="68" height="70" viewBox="0 0 68 70" fill="none" xmlns="http://www.w3.org/2000/svg">
<path fill-rule="evenodd" clip-rule="evenodd" d="M20.4472 27.2127C18.8451 29.0823 17.6017 30.3477 17.4537 30.4972C17.2307 30.7226 16.9269 30.8495 16.6102 30.8495C16.2934 30.8495 15.9897 30.7226 15.7666 30.496L15.7394 30.4683C15.2689 29.9904 10.9761 25.5795 7.89688 20.7329C4.27709 25.7764 2.37288 31.6991 2.37288 37.967C2.37288 54.3221 15.6788 67.628 32.0339 67.628C47.5429 67.628 60.3098 55.6646 61.5893 40.481C60.3992 41.9801 59.4081 43.0805 59.059 43.461L59.0076 43.5172C58.806 43.7359 58.5296 43.8701 58.2352 43.895C58.2017 43.8979 58.168 43.8993 58.1341 43.8993C57.8031 43.8993 57.4875 43.7617 57.2621 43.5185C56.3805 42.5622 48.6426 34.021 48.6426 28.4756C48.6426 24.0344 51.0649 20.2183 54.5009 18.6107C48.8511 12.0418 40.7539 8.30599 32.0339 8.30599C30.6544 8.30599 29.2595 8.40526 27.8682 8.60262C28.2617 9.85213 28.4749 11.1883 28.4749 12.5763C28.4749 13.6233 28.2168 14.7695 27.7796 15.9602C27.7523 16.0346 27.7242 16.1092 27.6955 16.1839C26.6021 19.0313 24.521 22.111 22.5176 24.6827C22.5329 24.7583 22.5408 24.8363 22.5408 24.9162C22.5408 26.2794 22.9086 27.5501 23.6561 28.7958C23.9883 29.3653 23.8103 30.0891 23.2409 30.4331C23.0629 30.5399 22.8493 30.5992 22.6358 30.5992C22.2205 30.5992 21.829 30.3845 21.6154 30.0179C21.0755 29.1114 20.6854 28.1749 20.4472 27.2127ZM26.9147 6.34704C24.8683 2.5583 21.016 0 16.6105 0C10.0685 0 4.74609 5.64153 4.74609 12.5763C4.74609 14.3563 5.49173 16.4227 6.59537 18.5064C2.33712 24.0717 0 30.9494 0 37.967C0 55.6307 14.3702 70.0009 32.0339 70.0009C49.6976 70.0009 64.0678 55.6307 64.069 37.967C64.069 37.6847 64.0626 37.4029 64.0534 37.1216C65.9405 34.3041 67.6256 31.0636 67.6256 28.4756C67.6256 22.5873 63.3675 17.7976 58.1341 17.7976C57.7427 17.7976 57.3568 17.8244 56.9778 17.8764C50.8573 10.2765 41.8082 5.93311 32.0351 5.93311C30.3383 5.93311 28.6201 6.07206 26.9147 6.34704ZM25.1069 8.031C23.5491 4.68001 20.3255 2.37407 16.6105 2.37407C11.3771 2.37407 7.11898 6.95017 7.11898 12.5775C7.11898 14.0768 7.8588 15.9552 8.96224 17.916C8.9915 17.9552 9.01851 17.9965 9.04305 18.0395C11.3198 22.0497 14.9776 26.1785 16.6161 27.944C17.6748 26.8134 19.0425 25.2591 20.4081 23.5266C20.4907 23.4218 20.5733 23.3163 20.6558 23.2103C23.4221 19.6549 26.102 15.4279 26.102 12.5775C26.102 12.2039 26.0833 11.8349 26.0467 11.4717C25.9298 10.33 25.6312 9.21873 25.1549 8.1565C25.1364 8.1154 25.1204 8.07349 25.1069 8.031ZM61.8153 36.1633C60.4627 38.1308 59.0211 39.8848 58.132 40.9224C55.5563 37.935 51.0181 31.9517 51.0181 28.4755C51.0181 24.5199 53.4314 21.0946 56.7546 20.3294L56.7759 20.3243C56.7908 20.3206 56.8056 20.3166 56.8203 20.3123C57.2463 20.2192 57.6854 20.1705 58.1341 20.1705C62.0588 20.1705 65.2527 23.8971 65.2527 28.4756C65.2527 30.5372 63.6538 33.4837 61.8153 36.1633ZM10.6777 11.8653C10.6777 15.1363 13.3389 17.7975 16.6099 17.7975C19.881 17.7975 22.5421 15.1363 22.5421 11.8653C22.5421 8.59429 19.881 5.93311 16.6099 5.93311C13.3389 5.93311 10.6777 8.59429 10.6777 11.8653ZM13.0506 11.8653C13.0506 9.90294 14.6476 8.30599 16.6099 8.30599C18.5723 8.30599 20.1693 9.90294 20.1693 11.8653C20.1693 13.8277 18.5723 15.4246 16.6099 15.4246C14.6476 15.4246 13.0506 13.8277 13.0506 11.8653ZM58.1344 32.035C55.5171 32.035 53.3887 29.9065 53.3887 27.2892C53.3887 24.6719 55.5171 22.5435 58.1344 22.5435C60.7517 22.5435 62.8802 24.6719 62.8802 27.2892C62.8802 29.9065 60.7505 32.035 58.1344 32.035ZM58.1344 24.9163C56.8258 24.9163 55.7616 25.9806 55.7616 27.2892C55.7616 28.5979 56.8258 29.6621 58.1344 29.6621C59.4431 29.6621 60.5073 28.5979 60.5073 27.2892C60.5073 25.9806 59.4431 24.9163 58.1344 24.9163ZM51.5968 41.467H51.6442C52.2849 41.467 52.8069 40.9687 52.8307 40.328C52.8425 40.0065 52.7358 39.7099 52.5103 39.4726C52.2968 39.2472 52.0002 39.1167 51.6917 39.1048C50.1256 39.0455 48.5595 38.9375 47.029 38.7833C46.3646 38.7252 45.7951 39.1879 45.7358 39.8404C45.7239 39.876 45.7239 39.9235 45.7239 39.9591C45.7239 40.5772 46.1866 41.0862 46.7917 41.1455C48.3578 41.2997 49.9832 41.4065 51.5968 41.467ZM40.812 40.2675C40.8951 40.2924 40.9663 40.2924 41.0375 40.2924C41.6069 40.2924 42.0934 39.8891 42.2002 39.3302C42.3307 38.6896 41.9036 38.0726 41.2629 37.9421C39.6968 37.6336 38.1781 37.2789 36.7544 36.8624C36.1375 36.6845 35.4612 37.0641 35.2832 37.6811C35.2476 37.7772 35.2358 37.8946 35.2358 38.0026C35.2358 38.5235 35.5917 38.9992 36.1019 39.1416C37.5849 39.5675 39.1747 39.9472 40.812 40.2675ZM30.3595 37.0523C30.5137 37.1247 30.6798 37.1591 30.8578 37.1591C31.3205 37.1591 31.7476 36.8874 31.9375 36.4579C32.2103 35.8647 31.9493 35.1647 31.3561 34.893C29.8849 34.2167 28.5561 33.4692 27.4171 32.6624C26.9069 32.2935 26.1358 32.4252 25.768 32.946C25.6256 33.1477 25.5544 33.385 25.5544 33.6341C25.5544 34.015 25.7442 34.3816 26.0527 34.5963C26.0527 34.6082 26.0646 34.6082 26.0646 34.6082C27.3103 35.4874 28.7578 36.3048 30.3595 37.0523Z" fill="#49B3F7"/>
</svg>

<svg width="68" height="70" fill="none" xmlns="http://www.w3.org/2000/svg"><path fill-rule="evenodd" clip-rule="evenodd" d="M20.447 27.213a67.112 67.112 0 01-2.993 3.284 1.187 1.187 0 01-1.687-.001l-.028-.028c-.47-.478-4.763-4.889-7.842-9.735-3.62 5.043-5.524 10.966-5.524 17.234 0 16.355 13.306 29.661 29.66 29.661 15.51 0 28.277-11.963 29.556-27.147-1.19 1.5-2.18 2.6-2.53 2.98l-.051.056a1.187 1.187 0 01-1.746.002c-.882-.957-8.62-9.498-8.62-15.043 0-4.442 2.423-8.258 5.859-9.865-5.65-6.57-13.747-10.305-22.467-10.305-1.38 0-2.774.1-4.166.297.394 1.25.607 2.585.607 3.973 0 1.047-.258 2.194-.695 3.384l-.085.224c-1.093 2.847-3.174 5.927-5.177 8.499.015.075.023.153.023.233 0 1.363.368 2.634 1.115 3.88.332.57.154 1.293-.415 1.637a1.189 1.189 0 01-1.626-.415c-.54-.907-.93-1.843-1.168-2.805zm6.468-20.866C24.868 2.558 21.016 0 16.61 0 10.07 0 4.746 5.642 4.746 12.576c0 1.78.746 3.847 1.85 5.93A32.125 32.125 0 000 37.967c0 17.664 14.37 32.034 32.034 32.034s32.034-14.37 32.035-32.034c0-.282-.006-.564-.016-.845 1.888-2.818 3.573-6.058 3.573-8.646 0-5.889-4.259-10.678-9.492-10.678-.391 0-.777.026-1.156.078-6.12-7.6-15.17-11.943-24.943-11.943-1.697 0-3.415.14-5.12.414zm-1.808 1.684c-1.558-3.351-4.781-5.657-8.497-5.657-5.233 0-9.491 4.576-9.491 10.204 0 1.499.74 3.377 1.843 5.338.03.04.057.08.081.123 2.277 4.01 5.935 8.14 7.573 9.905a70.496 70.496 0 004.04-4.734c2.766-3.555 5.446-7.782 5.446-10.633a10.753 10.753 0 00-.947-4.421 1.166 1.166 0 01-.048-.125zm36.708 28.132c-1.352 1.968-2.794 3.722-3.683 4.76-2.576-2.988-7.114-8.971-7.114-12.448 0-3.955 2.413-7.38 5.737-8.146l.02-.005a6.145 6.145 0 011.358-.154c3.926 0 7.12 3.727 7.12 8.306 0 2.061-1.6 5.008-3.438 7.687zM10.678 11.865a5.939 5.939 0 005.932 5.932 5.939 5.939 0 005.932-5.932 5.939 5.939 0 00-5.932-5.932 5.939 5.939 0 00-5.932 5.932zm2.373 0a3.564 3.564 0 013.559-3.559 3.564 3.564 0 013.56 3.56 3.564 3.564 0 01-3.56 3.559 3.564 3.564 0 01-3.56-3.56zm45.083 20.17a4.75 4.75 0 01-4.745-4.746 4.75 4.75 0 014.745-4.745 4.75 4.75 0 014.746 4.745 4.751 4.751 0 01-4.746 4.746zm0-7.119a2.375 2.375 0 00-2.372 2.373 2.375 2.375 0 002.372 2.373 2.375 2.375 0 002.373-2.373 2.375 2.375 0 00-2.373-2.373zm-6.537 16.551h.047a1.18 1.18 0 001.187-1.139 1.152 1.152 0 00-.32-.855 1.193 1.193 0 00-.82-.368 74.986 74.986 0 01-4.662-.322c-.664-.058-1.234.405-1.293 1.057-.012.036-.012.083-.012.12 0 .617.463 1.126 1.068 1.185 1.566.155 3.191.261 4.805.322zm-10.785-1.2a.735.735 0 00.226.025c.569 0 1.055-.403 1.162-.962a1.185 1.185 0 00-.937-1.388 51.85 51.85 0 01-4.509-1.08c-.616-.178-1.293.202-1.47.82a.96.96 0 00-.048.32c0 .521.356.997.866 1.14 1.483.425 3.073.805 4.71 1.125zM30.36 37.052c.154.073.32.107.498.107.462 0 .89-.272 1.08-.701a1.179 1.179 0 00-.582-1.565c-1.471-.676-2.8-1.424-3.939-2.23-.51-.37-1.281-.238-1.649.283a1.181 1.181 0 00-.214.688c0 .381.19.748.499.962 0 .012.012.012.012.012 1.245.88 2.693 1.697 4.294 2.444z" fill="#49B3F7"/></svg>
